public/avatar/hat/98.svg

<svg xmlns:xlink="http://www.w3.org/1999/xlink" height="92.9" width="100.7" xmlns="http://www.w3.org/2000/svg"><use height="33.55" transform="translate(17 38.85)" width="38.55" xlink:href="#a"/><defs><g id="a"><path d="M-5.7-.3q3-1.45 6.4-.95 5.05.8 9.55 6.55Q15 11.45 12.55 16q.15-1.3-.6-2.15l-1.6-1.5q-1.05-3.2-2.3-4.4L5.2 6.6Q2.65 5.35 3 5.05q-.85.7-1.55 1.75l-.7-1.9Q.3 3.9-.7 4.35q-.45.15-.95 1.15-.5.95-1.1 1.1l-2.15-.9q-1-.15-2.35.45-2.4 1.2-3.45 4.05l-1.6 5.1q-1.45-1.45-1.2-2.8l-2.75.5q.1-1.95 2.45-4.65L-10.35 4Q-8.7 1.15-5.7-.3" fill="#43434e" fill-opacity=".353" fill-rule="evenodd" transform="translate(21.65 10.9)"/><path d="M4.35 2.65q-3-2-4.75-2-4.5 0-10.35 7.85L-12 10.75q-1.3 2.6-1.4 4.25-.15 2.65.5 7.65-1.35-1.2-2.1-2.4-.7-1.1-.8-2.05l.2-1.85q.8-4.2 3.1-8.4Q-7.85-.5-.15-.5q7.7 0 11.85 8.2 2.1 4.1 2.6 8.2l-1.7-1.15q.25-1.6-3.05-6.9-1.8-2.95-5.2-5.2" fill-rule="evenodd" transform="translate(21.65 10.9)"/><path d="m-7.5 2.75 3.25-1.35q1.1 1.25-3.4 4-2.6 1.55-2.6 8.25-3.15-2.4-2.25-6.4.3-1.45 2.7-3.1 1.2-.85 2.3-1.4" fill-rule="evenodd" transform="translate(21.65 10.9)"/><path d="m12.9 10.35.4 1.4q.35 1.65-.05 2.9-.45 1.35-.95.1L11 9.9 8.85 6l-2.1.75-1.6-2.2-.5 1.85q-.35.8-2 2 0-2.85-.5-4.35L.6 1.9q0 1.6-.5 2.75-.5 1.1-1.45 2.2Q-1 4.4-2.4 3.15l-2.1-1-2.5.45Q-5.15 1-4.1.55q2.05-.9 5.9-.65 5.85.3 11.1 10.45m-27.2 6.55.05-.1.25.1h-.3m.9-20.75q1.6-.1 3.8 1.6 2.35 1.8 2.2 3.7-.2 2.2-3.65 6.8-1.3 2.7-3.2 8.55-3.85-2-4.75-4.25l2.35.4q-2.8-1.55-5-8.55l5.35.3q-2.05-2.2-2.9-5.25 3.55-.7 6.65.8.3-1.8-.85-4.1" fill-rule="evenodd" transform="translate(21.65 10.9)"/><path d="M-2.7-6.75Q.85-4.95 2.95-.8q.95.3.8 1.05 0 1.15-2.3 1.3-3.5.3-5.6 1.3l-4.8 3q-1.45 0-1.3-1.5l1.05-2.4.15-.2-.5.7Q-9.4.9-9.5-.95q-.35-5.55-2.7-7.45.9-.45 3.95 0Q-5-7.9-2.7-6.75m-8.5 19.3.15-.05-.15.2v-.15" fill-rule="evenodd" transform="translate(21.65 10.9)"/><path d="M-2.1-9.9Q.75-9 2.45-4.45L-1.6-5.2q-.8-1.85-.5-4.7" fill-rule="evenodd" transform="translate(21.65 10.9)"/><path d="M7.3-2.8Q8-.95 7.9.65 7.75 2.9 5.7 2.7L1.9 1.5l-4-1.65Q-4.45-1.65-2.2-3q2.35-1.4 6.45.5l.5.85q.6-2.55.5-3.85 1.25.55 2.05 2.7" fill-rule="evenodd" transform="translate(21.65 10.9)"/><path d="M9.35-2.55Q9.55.6 7.75 5L4.45-.55q.95-7.6.95-10.35 3.65 4.15 3.95 8.35" fill-rule="evenodd" transform="translate(21.65 10.9)"/><path d="M1.7-3q-.25-3.75-.15-5.65 1.05.2 2.3 1.3 1.2 1.1 1.55 2.2Q6-3.3 4-2.65l-3.3-.2 1-.15m7.5 8.8Q6.2.7 11-4.65q.5 7.3-1.8 10.45l.1.2H9l.2-.2" fill-rule="evenodd" transform="translate(21.65 10.9)"/><path d="M14-2.25q-.3 2.65-2.75 4.1-2.35 1.45-4.9.95l1.05-.2 2.9-2.85q1.75-1.9 3.7-2m1 12 .5 1.95q.4 2.35.1 4.55-.5 3.5-4.45 5.1 1.2-1.85 1.6-4.35-.45-1.7-.4-3.25.05-1.35.75-3.15l.65-1.5 1.25.65" fill-rule="evenodd" transform="translate(21.65 10.9)"/><path d="M16.6 9.65q-.8 2.75-2.45 4.15-1.15.95-2.3 1.1l-2.7-.15q2.55-3.55 1.15-5.9-2.2-2.2-3.05-3.55-1.05-1.8.9-4.2Q9.4-.4 11.35.7l2.8 2.25q3.6 3 2.45 6.7M3.75-5.15l3 1V-.5q0 .6-1.15.95L3.4.5Q-.55-.55-2.45-.65-3.9-.75-3.4-3.3l.8-2.55 6.35.7" fill-rule="evenodd" transform="translate(21.65 10.9)"/><path d="M-2.4-3.65q-1.2-1.5-3.25-2.5l-3.4-1.05" fill="none" stroke="#a3a3a3" stroke-linecap="round" stroke-linejoin="round" transform="translate(21.65 10.9)"/><path d="M-1.25-7.95.8-5.05M-10.85-2-8.5-.35l.25.65m-8.45.25 2.8.45q1.8.4 2.7 1.3" fill="none" stroke="#757575" stroke-linecap="round" stroke-linejoin="round" transform="translate(21.65 10.9)"/><path d="M13.4 4.85q2.65 3.15 1.3 5.4" fill="none" stroke="#8a8a8a" stroke-linecap="round" stroke-linejoin="round" transform="translate(21.65 10.9)"/><path d="m-15.5 6.55-2-.65M4.05 4.15q.35-1 0-1.8L3.55 1m-.5-7.65 1.7 2m7.3 11.3.7 1.5v1m-24.1-.1q-.65-1.8 0-3.5l1-2.3m-4.15 12.5.35-3.5.5-1.85m10.2-11.55 2.2 1.3q1 .95 1.2 1.9m15.3 10.45-2.85 1.85" fill="none" stroke="#757575" stroke-linecap="round" stroke-linejoin="round" transform="translate(21.65 10.9)"/></g></defs></svg>

<?xml version="1.0" encoding="UTF-8" standalone="no"?>
<svg xmlns:xlink="http://www.w3.org/1999/xlink" height="92.9px" width="100.7px" xmlns="http://www.w3.org/2000/svg">
  <g transform="matrix(1.0, 0.0, 0.0, 1.0, 38.65, 49.75)">
    <use height="33.55" transform="matrix(1.0, 0.0, 0.0, 1.0, -21.65, -10.9)" width="38.55" xlink:href="#shape0"/>
  </g>
  <defs>
    <g id="shape0" transform="matrix(1.0, 0.0, 0.0, 1.0, 21.65, 10.9)">
      <path d="M-5.7 -0.3 Q-2.7 -1.75 0.7 -1.25 5.75 -0.45 10.25 5.3 15.0 11.45 12.55 16.0 12.7 14.7 11.95 13.85 L10.35 12.35 Q9.3 9.15 8.05 7.95 L5.2 6.6 Q2.65 5.35 3.0 5.05 2.15 5.75 1.45 6.8 L0.75 4.9 Q0.3 3.9 -0.7 4.35 -1.15 4.5 -1.65 5.5 -2.15 6.45 -2.75 6.6 L-4.9 5.7 Q-5.9 5.55 -7.25 6.15 -9.65 7.35 -10.7 10.2 L-12.3 15.3 Q-13.75 13.85 -13.5 12.5 L-16.25 13.0 Q-16.15 11.05 -13.8 8.35 L-10.35 4.0 Q-8.7 1.15 -5.7 -0.3" fill="#43434e" fill-opacity="0.3529412" fill-rule="evenodd" stroke="none"/>
      <path d="M4.35 2.65 Q1.35 0.65 -0.4 0.65 -4.9 0.65 -10.75 8.5 L-12.0 10.75 Q-13.3 13.35 -13.4 15.0 -13.55 17.65 -12.9 22.65 -14.25 21.45 -15.0 20.25 -15.7 19.15 -15.8 18.2 L-15.6 16.35 Q-14.8 12.15 -12.5 7.95 -7.85 -0.5 -0.15 -0.5 7.55 -0.5 11.7 7.7 13.8 11.8 14.3 15.9 L12.6 14.75 Q12.85 13.15 9.55 7.85 7.75 4.9 4.35 2.65" fill="#000000" fill-rule="evenodd" stroke="none"/>
      <path d="M-7.5 2.75 L-4.25 1.4 Q-3.15 2.65 -7.65 5.4 -10.25 6.95 -10.25 13.65 -13.4 11.25 -12.5 7.25 -12.2 5.8 -9.8 4.15 -8.6 3.3 -7.5 2.75" fill="#000000" fill-rule="evenodd" stroke="none"/>
      <path d="M12.9 10.35 L13.3 11.75 Q13.65 13.4 13.25 14.65 12.8 16.0 12.3 14.75 L11.0 9.9 8.85 6.0 6.75 6.75 5.15 4.55 4.65 6.4 Q4.3 7.2 2.65 8.4 2.65 5.55 2.15 4.05 L0.6 1.9 Q0.6 3.5 0.1 4.65 -0.4 5.75 -1.35 6.85 -1.0 4.4 -2.4 3.15 L-4.5 2.15 -7.0 2.6 Q-5.15 1.0 -4.1 0.55 -2.05 -0.35 1.8 -0.1 7.65 0.2 12.9 10.35" fill="#000000" fill-rule="evenodd" stroke="none"/>
      <path d="M-14.3 16.9 L-14.25 16.8 -14.0 16.9 -14.3 16.9 M-13.4 -3.85 Q-11.8 -3.95 -9.6 -2.25 -7.25 -0.45 -7.4 1.45 -7.6 3.65 -11.05 8.25 -12.35 10.95 -14.25 16.8 -18.1 14.8 -19.0 12.55 L-16.65 12.95 Q-19.45 11.4 -21.65 4.4 L-16.3 4.7 Q-18.35 2.5 -19.2 -0.55 -15.65 -1.25 -12.55 0.25 -12.25 -1.55 -13.4 -3.85" fill="#000000" fill-rule="evenodd" stroke="none"/>
      <path d="M-2.7 -6.75 Q0.85 -4.95 2.95 -0.8 3.9 -0.5 3.75 0.25 3.75 1.4 1.45 1.55 -2.05 1.85 -4.15 2.85 L-8.95 5.85 Q-10.4 5.85 -10.25 4.35 L-9.2 1.95 -9.05 1.75 -9.55 2.45 Q-9.4 0.9 -9.5 -0.95 -9.85 -6.5 -12.2 -8.4 -11.3 -8.85 -8.25 -8.4 -5.0 -7.9 -2.7 -6.75 M-11.2 12.55 L-11.05 12.5 -11.2 12.7 -11.2 12.55" fill="#000000" fill-rule="evenodd" stroke="none"/>
      <path d="M-2.1 -9.9 Q0.75 -9.0 2.45 -4.45 L-1.6 -5.2 Q-2.4 -7.05 -2.1 -9.9" fill="#000000" fill-rule="evenodd" stroke="none"/>
      <path d="M7.3 -2.8 Q8.0 -0.95 7.9 0.65 7.75 2.9 5.7 2.7 L1.9 1.5 -2.1 -0.15 Q-4.45 -1.65 -2.2 -3.0 0.15 -4.4 4.25 -2.5 L4.75 -1.65 Q5.35 -4.2 5.25 -5.5 6.5 -4.95 7.3 -2.8" fill="#000000" fill-rule="evenodd" stroke="none"/>
      <path d="M9.35 -2.55 Q9.55 0.6 7.75 5.0 L4.45 -0.55 Q5.4 -8.15 5.4 -10.9 9.05 -6.75 9.35 -2.55" fill="#000000" fill-rule="evenodd" stroke="none"/>
      <path d="M1.7 -3.0 Q1.45 -6.75 1.55 -8.65 2.6 -8.45 3.85 -7.35 5.05 -6.25 5.4 -5.15 6.0 -3.3 4.0 -2.65 L0.7 -2.85 1.7 -3.0" fill="#000000" fill-rule="evenodd" stroke="none"/>
      <path d="M9.2 5.8 Q6.2 0.7 11.0 -4.65 11.5 2.65 9.2 5.8 L9.3 6.0 9.0 6.0 9.2 5.8" fill="#000000" fill-rule="evenodd" stroke="none"/>
      <path d="M14.0 -2.25 Q13.7 0.4 11.25 1.85 8.9 3.3 6.35 2.8 L7.4 2.6 10.3 -0.25 Q12.05 -2.15 14.0 -2.25" fill="#000000" fill-rule="evenodd" stroke="none"/>
      <path d="M15.0 9.75 L15.5 11.7 Q15.9 14.05 15.6 16.25 15.1 19.75 11.15 21.35 12.35 19.5 12.75 17.0 12.3 15.3 12.35 13.75 12.4 12.4 13.1 10.6 L13.75 9.1 15.0 9.75" fill="#000000" fill-rule="evenodd" stroke="none"/>
      <path d="M16.6 9.65 Q15.8 12.4 14.15 13.8 13.0 14.75 11.85 14.9 L9.15 14.75 Q11.7 11.2 10.3 8.85 8.1 6.65 7.25 5.3 6.2 3.5 8.15 1.1 9.4 -0.4 11.35 0.7 L14.15 2.95 Q17.75 5.95 16.6 9.65" fill="#000000" fill-rule="evenodd" stroke="none"/>
      <path d="M3.75 -5.15 L6.75 -4.15 6.75 -0.5 Q6.75 0.1 5.6 0.45 L3.4 0.5 Q-0.55 -0.55 -2.45 -0.65 -3.9 -0.75 -3.4 -3.3 L-2.6 -5.85 3.75 -5.15" fill="#000000" fill-rule="evenodd" stroke="none"/>
      <path d="M-2.4 -3.65 Q-3.6 -5.15 -5.65 -6.15 L-9.05 -7.2" fill="none" stroke="#a3a3a3" stroke-linecap="round" stroke-linejoin="round" stroke-width="1.0"/>
      <path d="M-1.25 -7.95 L0.8 -5.05" fill="none" stroke="#757575" stroke-linecap="round" stroke-linejoin="round" stroke-width="1.0"/>
      <path d="M-10.85 -2.0 L-8.5 -0.35 -8.25 0.3" fill="none" stroke="#757575" stroke-linecap="round" stroke-linejoin="round" stroke-width="1.0"/>
      <path d="M-16.7 0.55 L-13.9 1.0 Q-12.1 1.4 -11.2 2.3" fill="none" stroke="#757575" stroke-linecap="round" stroke-linejoin="round" stroke-width="1.0"/>
      <path d="M13.4 4.85 Q16.05 8.0 14.7 10.25" fill="none" stroke="#8a8a8a" stroke-linecap="round" stroke-linejoin="round" stroke-width="1.0"/>
      <path d="M-15.5 6.55 L-17.5 5.9" fill="none" stroke="#757575" stroke-linecap="round" stroke-linejoin="round" stroke-width="1.0"/>
      <path d="M4.05 4.15 Q4.4 3.15 4.05 2.35 L3.55 1.0" fill="none" stroke="#757575" stroke-linecap="round" stroke-linejoin="round" stroke-width="1.0"/>
      <path d="M3.05 -6.65 L4.75 -4.65" fill="none" stroke="#757575" stroke-linecap="round" stroke-linejoin="round" stroke-width="1.0"/>
      <path d="M12.05 6.65 L12.75 8.15 12.75 9.15" fill="none" stroke="#757575" stroke-linecap="round" stroke-linejoin="round" stroke-width="1.0"/>
      <path d="M-11.35 9.05 Q-12.0 7.25 -11.35 5.55 L-10.35 3.25" fill="none" stroke="#757575" stroke-linecap="round" stroke-linejoin="round" stroke-width="1.0"/>
      <path d="M-14.5 15.75 L-14.15 12.25 -13.65 10.4" fill="none" stroke="#757575" stroke-linecap="round" stroke-linejoin="round" stroke-width="1.0"/>
      <path d="M-3.45 -1.15 L-1.25 0.15 Q-0.25 1.1 -0.05 2.05" fill="none" stroke="#757575" stroke-linecap="round" stroke-linejoin="round" stroke-width="1.0"/>
      <path d="M15.25 12.5 L12.4 14.35" fill="none" stroke="#757575" stroke-linecap="round" stroke-linejoin="round" stroke-width="1.0"/>
    </g>
  </defs>
</svg>
